X:1
T:Llan, Y
L:1/8
Q:1/4=120
M:3/4
I:linebreak $
K:Dmin
V:1 treble 
V:1
"^Maestoso" D2 (DEFG) | (A=B) c2 A2 | G2 E2 F2 | D4 F2 | D2 (DEFG) | (A=B) c2 d2 | (cd) c2 =B2 | %7
 A4 || D2 | (FE) F2 G2 | (A=B) c2 A2 |$ f2 d2 (ef) | d4 (de) | f2 d2 (ed) | c2 A2 (BG) | %15
 F2 D2 (EF) | D4 || %17
